material/.icons/material/nfc-search-variant.svg

<svg xmlns="http://www.w3.org/2000/svg" viewBox="0 0 24 24"><path d="M16.5 12c2.5 0 4.5 2 4.5 4.5 0 .88-.24 1.71-.68 2.4L23.4 22 22 23.39l-3.11-3.07c-.69.43-1.51.68-2.39.68-2.5 0-4.5-2-4.5-4.5s2-4.5 4.5-4.5m0 2a2.5 2.5 0 00-2.5 2.5 2.5 2.5 0 002.5 2.5c1.39 0 2.5-1.12 2.5-2.5a2.5 2.5 0 00-2.5-2.5M18 6v4.18c-.67-.18-1.34-.21-2-.18V8h-3v2.28l.53.44a6.465 6.465 0 00-2.81 2.81c-.44-.36-.72-.91-.72-1.53 0-.74.41-1.38 1-1.72V8a2 2 0 012-2h5M6 18V6h4v2H8v8h2c-.04.68 0 1.35.17 2H6M20 4H4v16h7c.53.8 1.21 1.5 2.03 2H4a2 2 0 01-2-2V4a2 2 0 012-2h16a2 2 0 012 2v9.04c-.5-.8-1.18-1.5-2-2.04V4z"/></svg>

<?xml version="1.0" encoding="UTF-8"?><!DOCTYPE svg PUBLIC "-//W3C//DTD SVG 1.1//EN" "http://www.w3.org/Graphics/SVG/1.1/DTD/svg11.dtd"><svg xmlns="http://www.w3.org/2000/svg" xmlns:xlink="http://www.w3.org/1999/xlink" version="1.1" id="mdi-nfc-search-variant" width="24" height="24" viewBox="0 0 24 24"><path d="M16.5,12C19,12 21,14 21,16.5C21,17.38 20.76,18.21 20.32,18.9L23.4,22L22,23.39L18.89,20.32C18.2,20.75 17.38,21 16.5,21C14,21 12,19 12,16.5C12,14 14,12 16.5,12M16.5,14A2.5,2.5 0 0,0 14,16.5A2.5,2.5 0 0,0 16.5,19C17.89,19 19,17.88 19,16.5A2.5,2.5 0 0,0 16.5,14M18,6V10.18C17.33,10 16.66,9.97 16,10V8H13V10.28L13.53,10.72C12.34,11.33 11.35,12.3 10.72,13.53C10.28,13.17 10,12.62 10,12C10,11.26 10.41,10.62 11,10.28V8A2,2 0 0,1 13,6H18M6,18V6H8L10,6V8H8V16H10C9.96,16.68 10,17.35 10.17,18H6M20,4H4V20H11C11.53,20.8 12.21,21.5 13.03,22H4C2.89,22 2,21.1 2,20V4A2,2 0 0,1 4,2H20A2,2 0 0,1 22,4V13.04C21.5,12.24 20.82,11.54 20,11V4Z" /></svg>
